X:1
T:LE TORRENT
T:LE TORRENT
T:VALSE CÉLÈBRE
T:par Gatien MARCAILHOU
C:Gatien Marcailhou
%%score { ( 1 4 ) | ( 2 3 ) }
L:1/8
Q:1/4=200
M:3/4
K:Eb
V:1 treble nm="PIANO"
V:4 treble 
V:2 bass 
V:3 bass 
V:1
!ff! !wedge![GBg]2 z !wedge![GBg] !wedge![GBg]2 | z2 !wedge![EGe]2 !wedge![FAf]2 | %2
 !wedge![GBg]2 z !wedge![GBg] !wedge![GBg]2 | z2 !wedge![GBg]2 !wedge![Aca]2 | %4
 !wedge![GBg]2 z !wedge![FAf] !wedge![FAf]2 | z2 !wedge![FAf]2 !wedge![GBg]2 | %6
 !wedge![FAf]2 z !wedge![EGe] !wedge![EGe]2 | z2 G,B, EG | %8
!ff! !wedge![GBg]2 z !wedge![GBg] !wedge![GBg]2 | z2 !wedge![EGe]2 !wedge![FAf]2 | %10
 !wedge![GBg]2 z !wedge![GBg] !wedge![GBg]2 |1 z2 !wedge![GBg]2 !wedge![=Ac=a]2 | %12
 !wedge![GBg]2 z !wedge![^F=A^f] !wedge![FAf]2 | z2 D2 ^F2 | z2 GG Bd | g2 z2 z2 :|2 %16
 z2 !wedge![GBg]2 !wedge![_Ac_a]2 | !wedge![GBg]2 z !wedge![FAf] !wedge![FAf]2 | %18
 !wedge!b2 z2 !wedge![ABd]2 | [GBe]2 z2 z2 | z6 |: z2 z2 z!p! (!>!=e/g/ | .f2) z2 z2 | %23
 z2 z2 z!p! (!>!!2!d/f/ | .e2) z2 z2 | z2 (3(ded) (^cd | .b2) z2 !wedge!a2 | z2 (3(gag) (^fg | %28
 .f'2) z2 !wedge!e'2 | z2 z2 z!p! (!>!=e/g/ | .f2) z2 z2 | z2 z2 z (!>!!2!d/f/ | .e2) z2 z2 | %33
 z2 z!p! (!>!d/f/ .e2) | z2 z (!>!d/f/ .e2) | (3(ded) ^cd gf | e2 z2 z2 :: %37
!ff! !wedge![GBg]2 z !wedge![GBg] !wedge![GBg]2 | z2 !wedge![EGe]2 !wedge![FAf]2 | %39
 !wedge![GBg]2 z !wedge![GBg] !wedge![GBg]2 | z2 !wedge![GBg]2 !wedge![Aca]2 | %41
 !wedge![GBg]2 z !wedge![FAf] !wedge![FAf]2 | z2 !wedge![FAf]2 !wedge![GBg]2 | %43
 !wedge![FAf]2 z !wedge![EGe] !wedge![EGe]2 | z2 G,B, EG | %45
 !wedge![GBg]2 z !wedge![GBg] !wedge![GBg]2 | z2 !wedge![EGe]2 !wedge![FAf]2 | %47
 !wedge![GBg]2 z !wedge![GBg] !wedge![GBg]2 |1 z2 !wedge![GBg]2 !wedge![=Ac=a]2 | %49
 !wedge![GBg]2 z !wedge![^F=A^f] !wedge![FAf]2 | z2 D2 ^F2 | z2 GG Bd | g2 z2 z2 :|2 %53
 z2 [GBg]2 [_Ac_a]2 | !wedge![GBg]2 z !wedge![FAf] !wedge![FAf]2 | !wedge!b2 z2 [ABd]2 | [GBe-]6 | %57
 e2 z2 z2 |:[K:Bb]!p! !^!d6 | (!>!eB .b2) !wedge![Gg]2 | (!>![Ff]4 d2 | .B2) z2 z2 | !^!d3 cAF | %63
 !^!d3 cAF | !^!c3 BAB | F4 B2 |!p! d6 | (!>!eB .b2) !wedge![Gg]2 | (!>![Ff]4 d2 | .B2) z2 z2 | %70
 !^!d3 cAF | d3 (cAF | B2) (dB .b2) | B2 z2 z2 :| !^![_g_g']6 | z2 [_d_d']2 [_g_g']2 | %76
 z2 [ff']3 [=e=e'] | [ff']6 | [ff']6 | z2 [cc']2 [ff']2 | z2 [ee']3 [dd'] | [ee']6 | !^![ee']6 | %83
 z2 [Bb]2 [ee']2 | z2 [_d_d']3 [cc'] | [_d_d']6 | [cc']6 | !^![ff']6 |!p! !^!B6- | B2 c2 B2 | %90
 A2 G2 z A | (!>!G4 .F2) | !^!B6 | (3(BcB) =A2 B2 | =B4 c2 | f2 z2 z2 | !^!B6- | B2 c2 B2 | %98
 A2 G2 z A | (!>!G4 .F2) | !^!B6 | !^!B6 | c2 G2 A2 | B2 z2 z2 |:!p! d6 | (eB !wedge!b2) [Gg]2 | %106
 (!>![Ff]4 d2 | .B2) z2 z2 | !^!d3 cAF | !^!d3 cAF | !^!c3 BAB | F4 B2 | d6 | %113
 (eB .b2) !wedge![Gg]2 | ([Ff]4 d2 | .B2) z2 z2 | d3 (cAF | d3) (cAF | B2) (dB .b2) | %119
 !wedge!B2 z2 z2 ::[K:Eb] [G,B,]6 | [A,C]2 [B,D]2 [A,C]2 | [G,B,][A,C] !^![G,B,]4 | E,2 G,2 B,2 | %124
 [EG]2 (EB, G,2) | [Ac]2 [GB]2 [FA]2 | !2![=EG]2 !3!F2 !1!D!1!D- | D4 z2 | !^![G,B,]6 | %129
 [A,C]2 [B,D]2 [A,C]2 | [G,B,][A,C] !^![G,B,]4 | E,2 G,2 B,2 | [EG]2 (EB, .G,2) | A2 C2 D2 | %134
 [EG]2 G,B,EG | e2 z2 z2 ::!p! z2 .[Bb].[Bb].[Bb].[Bb] | .[Bb]2 z2 z2 | %138
 z2 .[ee'].[ee'].[ee'].[ee'] | .[ee']2 z2 [=e=e']2 | z2 [gg']2 [ff']2 | z2!8va(! [c'c'']2 [bb']2 | %142
 [aa']4 [gg']2 | [ff']4 [ee']2!8va)! |!p! z2 .[Bb].[Bb].[Bb].[Bb] | .[Bb]2 z2 z2 | %146
 z2 .[ee'].[ee'].[ee'].[ee'] | .[ee']2 z2 [=e=e']2 | z2 [gg']2 [ff']2 | %149
 z2!8va(! [c'c'']2 [bb']2!8va)! | z2 (!3!e!2!e!1!ee' | .e2) z2 z2 :| !^![G,B,]6 | %153
 [A,C]2 [B,D]2 [A,C]2 | [G,B,][A,C] !^![G,B,]4 | !2!E,2 !1!G,2 B,2 | [EG]2 (EB, .G,2) | %157
 [Ac]2 [GB]2 [FA]2 | !2![=EG]2 !3!F2 !1!D!1!D- | D4 z2 | !^![G,B,]6 | [A,C]2 [B,D]2 [A,C]2 | %162
 [G,B,][A,C] !^![G,B,]4 | E,2 G,2 B,2 | [EG]2 (EB, .G,2) | A2 C2 D2 | [EG]2 G,B,EG | e2 z2 z2 |: %168
[K:Ab]!p! .!3!c.!2!c.!1!c.!3!c.!2!c.!1!c | (!>!!5!fec.!1!A) z2 | .!3!A.!2!A.!1!A.!3!A.!2!A.!1!A | %171
 (!5!d!4!c!2!A!1!E) z2 | (!>!!5!cBE!1!D) z2 | (cBE.D) z2 | !3!ACEAce | (=df .e2) z2 | %176
!p! .!3!c.!2!c.!1!c.!3!c.!2!c.!1!c | (!>!!5!fec.!1!A) z2 | .A.A.A.A.A.A | (!>!dcA.F) z2 | %180
"_cresc." =EGc=egc' | !^!=e'3 =d'=bg | c'g=ecG=E | !5!c2 z2 z2 |!p! .c.c.c.c.c.c | (!5!fec.A) z2 | %186
 .A.A.A.A.A.A | (!>!!5!dcA!1!E) z2 | (!>!!5!cBE.D) z2 | (!>!cBE.D) z2 | ACEAce | (=df .e2) z2 | %192
 .c.c.c.c.c.c | (fec.A) z2 | .!3!=B.!2!B.!1!B.!3!B.!2!B.!1!B | =b^g=e=B ^G2 |!p! C_E_Ac_ea | %197
 !^!c'3 be!1!d |!f! aecAEC | !4!A2 z2 z2 :: !^!G6 | F2 G2 F2 |{/F} E=DEFGA | E4 A2 | %204
 (!1!G2 g2) (!1!B2 | b2) (!>!d2 .d'2) | (!>!f2 .f'2) (!>!e2 | .e'2) (!>!c2 .c'2) | G6 | F2 G2 F2 | %210
{/F} E=DEFGA | E4 A2 | (!>!F2 .f2) (!>!G2 | .g2) (!>!B2 .b2) | z2 [Aa]3 [Gg] | [Aa]2 z2 z2 :| %216
!p! .!3!c.!2!c.!1!c.!3!c.!2!c.!1!c | (!>!fec.A) z2 | .!3!A.!2!A.!1!A.!3!A.!2!A.!1!A | %219
 (!5!dcA.!1!E) z2 | (!5!cBE!1!D) z2 | (!>!!5!cBE!1!D) z2 | !3!ACEAce | (=df .e2) z2 | %224
!p! .!3!c.!2!c.!1!c.!3!c.!2!c.!1!c | (!>!!5!fec.A) z2 | .A.A.A.A.A.A | (!>!dcA.F) z2 | %228
"_cresc." =EGc=egc' | !^!=e'3 =d'=bg | c'g=ecG=E | !5!c2 z2 z2 |!p! .c.c.c.c.c.c | (!5!fec.A) z2 | %234
 .A.A.A.A.A.A | (!>!!5!dcA.!1!E) z2 | (!>!!5!cBE.D) z2 | (!>!cBED) z2 | !3!ACEAce | (=df .e2) z2 | %240
 .c.c.c.c.c.c | (fec.A) z2 |!f! .!3!=B.!2!B.!1!B.!3!B.!2!B.!1!B | =b^g=e=B !2!^G2 |!p! C_E_Ac_ea | %245
 !^!c'3 be!1!d |!f! aecAEC | !4!A2 z2 z2 |:[K:Eb]!ff! !wedge![GBg]2 z !wedge![GBg] !wedge![GBg]2 | %249
 z2 !wedge![EGe]2 !wedge![FAf]2 | !wedge![GBg]2 z !wedge![GBg] !wedge![GBg]2 | %251
 z2 !wedge![GBg]2 !wedge![Aca]2 | !wedge![GBg]2 z !wedge![FAf] !wedge![FAf]2 | %253
 z2 !wedge![FAf]2 !wedge![GBg]2 | !wedge![FAf]2 z !wedge![EGe] !wedge![EGe]2 | z2 G,B, EG | %256
 !wedge![GBg]2 z !wedge![GBg] !wedge![GBg]2 | z2 !wedge![EGe]2 !wedge![FAf]2 | %258
 !wedge![GBg]2 z !wedge![GBg] !wedge![GBg]2 |1 z2 !wedge![GBg]2 !wedge![=Ac=a]2 | %260
 !wedge![GBg]2 z !wedge![^F=A^f] !wedge![FAf]2 | z2 D2 ^F2 | z2 GG Bd | g2 z2 z2 :|2 %264
 z2 !wedge![GBg]2 !wedge![_Ac_a]2 | !wedge![GBg]2 z !wedge![FAf] !wedge![FAf]2 | %266
 !wedge!b2 z2 !wedge![ABd]2 | [GBe-]6 | e2 z2 z2 ||!p! z2 z2 z (!>!=e/g/ | .f2) z2 z2 | %271
 z2 z2 z (!>!d/f/ | .e2) z2 z2 | z2 (3(ded) (^cd | .b2) z2 !wedge!a2 | z2 (3(gag) (^fg | %276
 .f'2) z2 !wedge!e'2 | z2 z2 z (!>!=e/g/ | .f2) z2 z2 | z2 z2 z (!>!d/f/ | .e2) z2 z2 | %281
 z2 z!p! (!>!d/f/ .e2) | z2 z (!>!d/f/ .e2) | (3(ded) ^cd gf | e2 z2 z2 ||[K:Bb]!p! d6 | %286
 (eB .b2) !wedge![Gg]2 | ([Ff]4 d2 | .B2) z2 z2 | !^!d3 cAF | !^!d3 cAF | !^!c3 BAB | F4 B2 | %293
!p! d6 | (eB .b2) .[Gg]2 | (!>![Ff]4 d2 | .B2) z2 z2 | !^!d3 (cAF | !^!d3) (cAF | %299
 B2) (dB !wedge!b2) | B2 z2 z2 |!pp! z2 (_A,F B,2) | z2 (G,=E .B,) z | z2 (_G,E B,) z | %304
 (D3 B, F,2) |!p! z2 (_A,F .B,2) | z2 (G,=E B,) z | z2 (_G,E .B,) z |"_cresc." (!>!D3 B, F,2) | %309
 !wedge!B,2 z !wedge!B, !wedge!B,2 | B,2 =A,2 B,2 | !wedge!=B,2 z !wedge!B, !wedge!B,2 | %312
 =B,2 ^A,2 B,2 | C2 z C C2 |!f! [Dd]2 z [Dd] [Dd]2 |!ff! !^![Ee]6- | [Ee]2 [Ff]2 [Ee]2 | %317
 [Dd]2 [Cc]3 [Dd] | (!>![Cc]4 [B,B]2) | [Ee]6- | [Ee]2 [Dd]2 [Ee]2 | [=E=e]4 [Ff]2 | [Bb]2 z2 z2 | %323
!ff! !^![Ee]6- | [Ee]2 [Ff]2 [Ee]2 | [Dd]2 [Cc]3 [Dd] | (!>![Cc]4 [B,B]2) |!f! !^![Ee]6 | %328
!f! !^![Ee]6 | [Dd]2 [Cc]2 [Dd]2 | [Ee]2 z2 z2 | %331
!ff! !wedge![=B^d=b]2 z !wedge![Bdb] !wedge![Bdb]2 | %332
 !wedge![_B_e_b]2 z !wedge![Beb] !wedge![Beb]2 | [db]2 [cb]2 [db]2 | [Beb]2 z2 z2 | %335
!pp! [=B,^D=B]2 z [B,DB] [B,DB]2 | !wedge![B,EB]2 z !wedge![B,EB] !wedge![B,EB]2 | %337
 [DB]2 [CB]2 [DB]2 |!ff! [B,EB]6 | [G,B,EG]6 | [G,B,E]6!fine! |] %341
V:2
 .[E,,E,]2 .!4!!2![B,E]2 .[B,E]2 | [B,E]2 z2 z2 | .[E,,E,]2 .!4!!2![B,E]2 .[B,E]2 | .[B,E]2 z2 z2 | %4
 .[B,,,B,,]2 .!2!!1![B,D]2 .[B,D]2 | .[B,D]2 z2 z2 | .[E,,E,]2 .[E,G,B,]2 .[E,G,B,]2 | %7
 .[E,G,B,]2 z2 z2 | .[E,,E,]2 .[B,E]2 .[B,E]2 | .[B,E]2 z2 z2 | .[E,,E,]2 .[B,E]2 .[B,E]2 |1 %11
 .[B,E]2 z2 z2 | .[D,,D,]2 .[D,=A,C]2 .[D,A,C]2 | [D,=A,C]2 z2 z2 | G,2 [B,D]2 [B,D]2 | %15
 G,2 z2 z2 :|2 .[B,E]2 z2 z2 | .[B,,,B,,]2 .[B,D]2 .[B,D]2 | .B,,2 .[B,D]2 .[B,D]2 | %19
 .E,2 .[B,EG]2 .[B,EG]2 | E,2 [B,EG]2 [B,EG]2 |:!mf! B,,2 [A,B,F]2 [A,B,F]2 | %22
 D,2 [A,B,F]2 [A,B,F]2 | E,2 [B,EG]2 [B,EG]2 | G,2 [B,EG]2 [B,EG]2 | B,,2 [A,B,F]2 [A,B,F]2 | %26
 D,2 [A,B,D]2 [A,B,D]2 | E,2 [B,EG]2 [B,EG]2 | E,2 [B,EG]2 [B,EG]2 | B,,2 [A,B,F]2 [A,B,F]2 | %30
 D,2 [A,B,F]2 [A,B,F]2 | E,2 [B,EG]2 [B,EG]2 | G,2 [B,EG]2 [B,EG]2 |[K:treble] !^!A,6 | B,6 | B,6 | %36
 [EG]2 z2 z2 ::[K:bass] .[E,,E,]2 .[B,E]2 .[B,E]2 | .[B,E]2 z2 z2 | .[E,,E,]2 .[B,E]2 .[B,E]2 | %40
 .[B,E]2 z2 z2 | .[B,,,B,,]2 .[B,D]2 .[B,D]2 | .[B,D]2 z2 z2 | .[E,,E,]2 .[E,G,B,]2 .[E,G,B,]2 | %44
 .[E,G,B,]2 z2 z2 | .[E,,E,]2 .[B,E]2 .[B,E]2 | .[B,E]2 z2 z2 | .[E,,E,]2 .[B,E]2 .[B,E]2 |1 %48
 .[B,E]2 z2 z2 | .[D,,D,]2 .[D,=A,C]2 .[D,A,C]2 | .[D,=A,C]2 z2 z2 | .G,2 .[B,D]2 .[B,D]2 | %52
 G,2 z2 z2 :|2 [B,E]2 z2 z2 | .[B,,,B,,]2 .[B,D]2 .[B,D]2 | .B,,2 .[B,D]2 .[B,D]2 | %56
 E,2 [B,EG]2 [B,EG]2 | E,2 z2 z2 |:[K:Bb] [B,,,B,,]2 [F,B,D]2 [F,B,D]2 | B,,2 [G,B,E]2 [G,B,E]2 | %60
 B,,2 [F,B,D]2 [F,B,D]2 | B,,2 [F,B,D]2 [F,B,D]2 | F,2 [A,CE]2 [A,CE]2 | F,2 [A,CE]2 [A,CE]2 | %64
 B,,2 [F,B,D]2 [F,B,D]2 | B,,2 [F,B,D]2 [F,B,D]2 | B,,2 [F,B,D]2 [F,B,D]2 | %67
 B,,2 [G,B,E]2 [G,B,E]2 | B,,2 [F,B,D]2 [F,B,D]2 | B,,2 [F,B,D]2 [F,B,D]2 | F,2 [A,CE]2 [A,CE]2 | %71
 F,2 [A,CE]2 [A,CE]2 | B,,2 [F,B,D]2 [F,B,D]2 | B,,2 z2 z2 :| B,6 | B,6 | =A,6 | =A,6 | _A,6 | %79
 _A,6 | G,6 | G,6 | _G,6 | _G,6 | F,2 [B,_DF]2 [B,DF]2 | F,2 [B,_DF]2 [B,DF]2 | %86
 F,2 [A,EF]2 [A,EF]2 | F,2 [A,EF]2 [A,EF]2 | B,,2 [F,B,D]2 [F,B,D]2 | B,,2 [F,B,D]2 [F,B,D]2 | %90
 B,,2 [G,B,E]2 [G,B,E]2 | B,,2 [F,B,D]2 [F,B,D]2 | B,,2 [F,B,D]2 [F,B,D]2 | %93
 B,,2 [F,B,D]2 [F,B,D]2 | F,2 [=A,E]2 [A,E]2 | F,2 [=A,E]2 [A,E]2 | B,,2 [F,B,D]2 [F,B,D]2 | %97
 B,,2 [F,B,D]2 [F,B,D]2 | B,,2 [G,B,E]2 [G,B,E]2 | B,,2 [F,B,D]2 [F,B,D]2 | _G,2 [B,_D]2 [B,D]2 | %101
 F,2 [B,=D]2 [B,D]2 | F,2 [CE]2 [CE]2 | [B,D]2 z2 z2 |: B,,2 [F,B,D]2 [F,B,D]2 | %105
 B,,2 [G,B,E]2 [G,B,E]2 | B,,2 [F,B,D]2 [F,B,D]2 | B,,2 [F,B,D]2 [F,B,D]2 | F,2 [A,CE]2 [A,CE]2 | %109
 F,2 [A,CE]2 [A,CE]2 | B,,2 [F,B,D]2 [F,B,D]2 | B,,2 [F,B,D]2 [F,B,D]2 | B,,2 [F,B,D]2 [F,B,D]2 | %113
 B,,2 [G,B,E]2 [G,B,E]2 | B,,2 [F,B,D]2 [F,B,D]2 | B,,2 [F,B,D]2 [F,B,D]2 | F,2 [A,CE]2 [A,CE]2 | %117
 F,2 [A,CE]2 [A,CE]2 | B,,2 [F,B,D]2 [F,B,D]2 | B,,2 z2 z2 ::[K:Eb] !^!E,,6 | !^!E,,6 | !^!E,,6 | %123
 !^!E,,6 | !^!E,,6 | !^!E,,6 | !^!B,,,6 | !^!B,,,6 | !^!E,,6 | !^!E,,6 | !^!E,,6 | E,,6 | E,,6 | %133
 B,,,6 | E,,6 | E,,2 z2 z2 :: [B,,,B,,]2 [A,B,D]2 [A,B,D]2 | D,2 [A,B,D]2 [A,B,D]2 | %138
 E,2 [B,E]2 [B,E]2 | G,2 [B,E]2 [B,E]2 | F,2 [B,D]2 [B,D]2 | B,,2 [A,B,D]2 [A,B,D]2 | %142
 E,2 [B,E]2 [B,E]2 | G,2 [B,E]2 [B,E]2 | [B,,,B,,]2 [A,B,D]2 [A,B,D]2 | D,2 [A,B,D]2 [A,B,D]2 | %146
 E,2 [B,E]2 [B,E]2 | G,2 [B,E]2 [B,E]2 | F,2 [B,D]2 [B,D]2 | B,,2 [A,B,D]2 [A,B,D]2 | %150
 E,2 [G,B,E]2 [G,B,E]2 | E,2 z2 z2 :| E,,6 | E,,6 | E,,6 | E,,6 | E,,6 | E,,6 | B,,,6 | B,,,6 | %160
 E,,6 | E,,6 | E,,6 | E,,6 | E,,6 | B,,,6 | E,,6 | E,,2 z2 z2 |:[K:Ab] A,,2 [E,A,C]2 [E,A,C]2 | %169
 A,,2 [E,A,C]2 [E,A,C]2 | A,,2 [E,A,C]2 [E,A,C]2 | A,,2 [E,A,C]2 [E,A,C]2 | E,,2 [E,G,]2 [E,G,]2 | %173
 E,,2 [E,G,]2 [E,G,]2 | A,,2 [E,A,C]2 [E,A,C]2 | A,,2 [E,A,C]2 [E,A,C]2 | A,,2 [E,A,C]2 [E,A,C]2 | %177
 A,,2 [E,A,C]2 [E,A,C]2 | F,,2 [F,A,C]2 [F,A,C]2 | F,,2 [F,A,C]2 [F,A,C]2 | %180
 C,2 [=E,G,C]2 [E,G,C]2 | G,,2 [F,G,=B,]2 [F,G,B,]2 | C,2 [=E,G,C]2 [E,G,C]2 | C,2 z2 z2 | %184
 A,,2 [E,A,C]2 [E,A,C]2 | A,,2 [E,A,C]2 [E,A,C]2 | A,,2 [E,A,C]2 [E,A,C]2 | %187
 A,,2 [E,A,C]2 [E,A,C]2 | E,,2 [E,G,]2 [E,G,]2 | E,,2 [E,G,]2 [E,G,]2 | A,,2 [E,A,C]2 [E,A,C]2 | %191
 A,,2 [E,A,C]2 [E,A,C]2 | A,,2 [E,A,C]2 [E,A,C]2 | A,,2 [E,A,C]2 [E,A,C]2 | %194
 =E,,2 [=E,^G,=B,]2 [E,G,B,]2 | =E,,2 [=E,^G,=B,]2 [E,G,B,]2 | A,,2 [E,A,C]2 [E,A,C]2 | %197
 E,2 [G,B,_D]2 [G,B,D]2 | A,,2 [E,A,C]2 [E,A,C]2 | A,,2 z2 z2 :: [E,,E,]2 [B,D]2 [B,D]2 | %201
 E,2 [G,B,D]2 [G,B,D]2 | A,,2 [E,A,C]2 [E,A,C]2 | A,,2 [E,A,C]2 [E,A,C]2 | E,2 [B,D]2 [B,D]2 | %205
 E,2 [B,D]2 [B,D]2 | A,,2 [E,A,C]2 [E,A,C]2 | A,,2 [E,A,C]2 [E,A,C]2 | [E,,E,]2 [B,D]2 [B,D]2 | %209
 E,2 [G,B,D]2 [G,B,D]2 | A,,2 [E,A,C]2 [E,A,C]2 | A,,2 [E,A,C]2 [E,A,C]2 | D,2 [B,D]2 [B,D]2 | %213
 E,2 [B,D]2 [B,D]2 | A,,2 [E,A,C]2 [E,A,C]2 | A,,2 z2 z2 :| A,,2 [E,A,C]2 [E,A,C]2 | %217
 A,,2 [E,A,C]2 [E,A,C]2 | A,,2 [E,A,C]2 [E,A,C]2 | A,,2 [E,A,C]2 [E,A,C]2 | E,,2 [E,G,]2 [E,G,]2 | %221
 E,,2 [E,G,]2 [E,G,]2 | A,,2 [E,A,C]2 [E,A,C]2 | A,,2 [E,A,C]2 [E,A,C]2 | A,,2 [E,A,C]2 [E,A,C]2 | %225
 A,,2 [E,A,C]2 [E,A,C]2 | F,,2 [F,A,C]2 [F,A,C]2 | F,,2 [F,A,C]2 [F,A,C]2 | %228
 C,2 [=E,G,C]2 [E,G,C]2 | G,,2 [F,G,=B,]2 [F,G,B,]2 | C,2 [=E,G,C]2 [E,G,C]2 | C,2 z2 z2 | %232
 A,,2 [E,A,C]2 [E,A,C]2 | A,,2 [E,A,C]2 [E,A,C]2 | A,,2 [E,A,C]2 [E,A,C]2 | %235
 A,,2 [E,A,C]2 [E,A,C]2 | E,,2 [E,G,]2 [E,G,]2 | E,,2 [E,G,]2 [E,G,]2 | A,,2 [E,A,C]2 [E,A,C]2 | %239
 A,,2 [E,A,C]2 [E,A,C]2 | A,,2 [E,A,C]2 [E,A,C]2 | A,,2 [E,A,C]2 [E,A,C]2 | %242
 =E,,2 [=E,^G,=B,]2 [E,G,B,]2 | =E,,2 [=E,^G,=B,]2 [E,G,B,]2 | A,,2 [E,A,C]2 [E,A,C]2 | %245
 E,2 [G,B,_D]2 [G,B,D]2 | A,,2 [E,A,C]2 [E,A,C]2 | A,,2 z2 z2 |: %248
[K:Eb] .[E,,E,]2 .!4!!2![B,E]2 .[B,E]2 | [B,E]2 z2 z2 | .[E,,E,]2 .!4!!2![B,E]2 .[B,E]2 | %251
 .[B,E]2 z2 z2 | .[B,,,B,,]2 .!2!!1![B,D]2 .[B,D]2 | .[B,D]2 z2 z2 | %254
 .[E,,E,]2 .[E,G,B,]2 .[E,G,B,]2 | .[E,G,B,]2 z2 z2 | .[E,,E,]2 .[B,E]2 .[B,E]2 | .[B,E]2 z2 z2 | %258
 .[E,,E,]2 .[B,E]2 .[B,E]2 |1 .[B,E]2 z2 z2 | .[D,,D,]2 .[D,=A,C]2 .[D,A,C]2 | .[D,=A,C]2 z2 z2 | %262
 .G,2 .[B,D]2 .[B,D]2 | .G,2 z2 z2 :|2 .[B,E]2 z2 z2 | .[B,,,B,,]2 .[B,D]2 .[B,D]2 | %266
 .B,,2 .[B,D]2 .[B,D]2 | .E,2 .[B,EG]2 .[B,EG]2 | .E,2 z2 z2 || B,,2 [A,B,F]2 [A,B,F]2 | %270
 D,2 [A,B,F]2 [A,B,F]2 | E,2 [B,EG]2 [B,EG]2 | G,2 [B,EG]2 [B,EG]2 | B,,2 [A,B,F]2 [A,B,F]2 | %274
 D,2 [A,B,D]2 [A,B,D]2 | E,2 [B,EG]2 [B,EG]2 | E,2 [B,EG]2 [B,EG]2 | B,,2 [A,B,F]2 [A,B,F]2 | %278
 D,2 [A,B,F]2 [A,B,F]2 | E,2 [B,EG]2 [B,EG]2 | G,2 [B,EG]2 [B,EG]2 |[K:treble] A,6 | B,6 | B,6 | %284
 [EG]2 z2 z2 ||[K:Bb][K:bass] B,,2 [F,B,D]2 [F,B,D]2 | B,,2 [G,B,E]2 [G,B,E]2 | %287
 B,,2 [F,B,D]2 [F,B,D]2 | B,,2 [F,B,D]2 [F,B,D]2 | F,2 [A,CE]2 [A,CE]2 | F,2 [A,CE]2 [A,CE]2 | %291
 B,,2 [F,B,D]2 [F,B,D]2 | B,,2 [F,B,D]2 [F,B,D]2 | B,,2 [F,B,D]2 [F,B,D]2 | %294
 B,,2 [G,B,E]2 [G,B,E]2 | B,,2 [F,B,D]2 [F,B,D]2 | B,,2 [F,B,D]2 [F,B,D]2 | F,2 [A,CE]2 [A,CE]2 | %298
 F,2 [A,CE]2 [A,CE]2 | B,,2 [F,B,D]2 [F,B,D]2 | B,,2 z2 z2 | B,,,6 | B,,,6 | B,,,6 | B,,,6 | %305
 B,,,6 | B,,,6 | B,,,6 | B,,,6 | !wedge![B,,,B,,]2 z !wedge![B,,,B,,] !wedge![B,,,B,,]2 | %310
 [B,,,B,,]2 [A,,,A,,]2 [B,,,B,,]2 | !wedge![=B,,,=B,,]2 z !wedge![B,,,B,,] !wedge![B,,,B,,]2 | %312
 [=B,,,=B,,]2 [^A,,,^A,,]2 [B,,,B,,]2 | [C,,C,]2 z [C,,C,] [C,,C,]2 | [D,,D,]2 z [D,,D,] [D,,D,]2 | %315
 E,,2 [B,,E,G,]2 [B,,E,G,]2 | E,,2 [B,,E,G,]2 [B,,E,G,]2 | E,,2 [C,E,_A,]2 [C,E,A,]2 | %318
 E,,2 [B,,E,G,]2 [B,,E,G,]2 | E,,2 [B,,E,G,]2 [B,,E,G,]2 | E,,2 [B,,E,G,]2 [B,,E,G,]2 | %321
 E,,2 [B,,D,_A,]2 [B,,D,A,]2 | E,,2 [B,,D,_A,]2 [B,,D,A,]2 | E,,2 [B,,E,G,]2 [B,,E,G,]2 | %324
 E,,2 [B,,E,G,]2 [B,,E,G,]2 | E,,2 [C,E,_A,]2 [C,E,A,]2 | E,,2 [B,,E,G,]2 [B,,E,G,]2 | %327
 =A,,2 [C,E,^F,]2 [C,E,F,]2 | B,,2 [E,G,]2 [E,G,]2 | B,,2 [F,_A,]2 [F,A,]2 | [E,G,]2 z2 z2 | %331
[K:treble] [=B,^D^F]2 z [B,DF] [B,DF]2 | [_B,_EG]2 z [B,EG] [B,EG]2 | [B,=F_A]2 [B,FA]2 [B,FA]2 | %334
 [B,EG]2 z2 z2 |[K:bass] [=B,,^D,^F,]2 z [B,,D,F,] [B,,D,F,]2 | [B,,E,G,]2 z [B,,E,G,] [B,,E,G,]2 | %337
 [B,,=F,_A,]2 [B,,F,A,]2 [B,,F,A,]2 | [B,,E,G,]6 | [E,,E,]6 | [E,,,E,,]6 |] %341
V:3
 x6 | x6 | x6 | x6 | x6 | x6 | x6 | x6 | x6 | x6 | x6 |1 x6 | x6 | x6 | x6 | x6 :|2 x6 | x6 | x6 | %19
 x6 | x6 |: x6 | x6 | x6 | x6 | x6 | x6 | x6 | x6 | x6 | x6 | x6 | x6 | %33
[K:treble] z2 [CE^F]2 [CEF]2 | z2 [EG]2 [EG]2 | z2 [D_A]2 [D_A]2 | x6 ::[K:bass] x6 | x6 | x6 | %40
 x6 | x6 | x6 | x6 | x6 | x6 | x6 | x6 |1 x6 | x6 | x6 | x6 | x6 :|2 x6 | x6 | x6 | x6 | x6 |: %58
[K:Bb] x6 | x6 | x6 | x6 | x6 | x6 | x6 | x6 | x6 | x6 | x6 | x6 | x6 | x6 | x6 | x6 :| %74
 z2 [_D_G]2 [DG]2 | z2 [_D_G]2 [DG]2 | z2 [CF]2 [CF]2 | z2 [CF]2 [CF]2 | z2 [CF]2 [CF]2 | %79
 z2 [CF]2 [CF]2 | z2 [B,E]2 [B,E]2 | z2 [B,E]2 [B,E]2 | z2 [B,E]2 [B,E]2 | z2 [B,E]2 [B,E]2 | x6 | %85
 x6 | x6 | x6 | x6 | x6 | x6 | x6 | x6 | x6 | x6 | x6 | x6 | x6 | x6 | x6 | x6 | x6 | x6 | x6 |: %104
 x6 | x6 | x6 | x6 | x6 | x6 | x6 | x6 | x6 | x6 | x6 | x6 | x6 | x6 | x6 | x6 :: %120
[K:Eb] z2 B,,2 B,,2 | z2 B,,2 A,,2 | z2 B,,2 B,,2 | z2 B,,2 B,,2 | z2 B,,2 B,,2 | z2 B,,2 B,,2 | %126
 z2 B,,2 B,,2 | z2 B,,2 B,,2 | z2 B,,2 B,,2 | z2 B,,2 A,,2 | z2 B,,2 B,,2 | z2 B,,2 B,,2 | %132
 z2 B,,2 B,,2 | z2 B,,2 B,,2 | z2 B,,2 B,,2 | x6 :: x6 | x6 | x6 | x6 | x6 | x6 | x6 | x6 | x6 | %145
 x6 | x6 | x6 | x6 | x6 | x6 | x6 :| z2 B,,2 B,,2 | z2 B,,2 A,,2 | z2 B,,2 B,,2 | z2 B,,2 B,,2 | %156
 z2 B,,2 B,,2 | z2 B,,2 B,,2 | z2 B,,2 B,,2 | z2 B,,2 B,,2 | z2 B,,2 B,,2 | z2 B,,2 A,,2 | %162
 z2 B,,2 B,,2 | z2 B,,2 B,,2 | z2 B,,2 B,,2 | z2 B,,2 B,,2 | z2 B,,2 B,,2 | x6 |:[K:Ab] x6 | x6 | %170
 x6 | x6 | x6 | x6 | x6 | x6 | x6 | x6 | x6 | x6 | x6 | x6 | x6 | x6 | x6 | x6 | x6 | x6 | x6 | %189
 x6 | x6 | x6 | x6 | x6 | x6 | x6 | x6 | x6 | x6 | x6 :: x6 | x6 | x6 | x6 | x6 | x6 | x6 | x6 | %208
 x6 | x6 | x6 | x6 | x6 | x6 | x6 | x6 :| x6 | x6 | x6 | x6 | x6 | x6 | x6 | x6 | x6 | x6 | x6 | %227
 x6 | x6 | x6 | x6 | x6 | x6 | x6 | x6 | x6 | x6 | x6 | x6 | x6 | x6 | x6 | x6 | x6 | x6 | x6 | %246
 x6 | x6 |:[K:Eb] x6 | x6 | x6 | x6 | x6 | x6 | x6 | x6 | x6 | x6 | x6 |1 x6 | x6 | x6 | x6 | %263
 x6 :|2 x6 | x6 | x6 | x6 | x6 || x6 | x6 | x6 | x6 | x6 | x6 | x6 | x6 | x6 | x6 | x6 | x6 | %281
[K:treble] z2 [CE^F]2 [CEF]2 | z2 [EG]2 [EG]2 | z2 [D_A]2 [D_A]2 | x6 ||[K:Bb][K:bass] x6 | x6 | %287
 x6 | x6 | x6 | x6 | x6 | x6 | x6 | x6 | x6 | x6 | x6 | x6 | x6 | x6 | z2 B,,2 B,,2 | %302
 z2 B,,2 B,,2 | z2 B,,2 B,,2 | z2 B,,2 B,,2 | z2 B,,2 B,,2 | z2 B,,2 B,,2 | z2 B,,2 B,,2 | %308
 z2 B,,2 B,,2 | x6 | x6 | x6 | x6 | x6 | x6 | x6 | x6 | x6 | x6 | x6 | x6 | x6 | x6 | x6 | x6 | %325
 x6 | x6 | x6 | x6 | x6 | x6 |[K:treble] x6 | x6 | x6 | x6 |[K:bass] x6 | x6 | x6 | x6 | x6 | x6 |] %341
V:4
 x6 | x6 | x6 | x6 | x6 | x6 | x6 | x6 | x6 | x6 | x6 |1 x6 | x6 | x6 | x6 | x6 :|2 x6 | x6 | x6 | %19
 x6 | x6 |: x6 | x6 | x6 | x6 | x6 | x6 | x6 | x6 | x6 | x6 | x6 | x6 | x6 | x6 | x6 | x6 :: x6 | %38
 x6 | x6 | x6 | x6 | x6 | x6 | x6 | x6 | x6 | x6 |1 x6 | x6 | x6 | x6 | x6 :|2 x6 | x6 | x6 | x6 | %57
 x6 |:[K:Bb] x6 | x6 | x6 | x6 | x6 | x6 | x6 | x6 | x6 | x6 | x6 | x6 | x6 | x6 | x6 | x6 :| x6 | %75
 x6 | x6 | x6 | x6 | x6 | x6 | x6 | x6 | x6 | x6 | x6 | x6 | x6 | x6 | x6 | x6 | x6 | x6 | x6 | %94
 x6 | x6 | x6 | x6 | x6 | x6 | x6 | x6 | x6 | x6 |: x6 | x6 | x6 | x6 | x6 | x6 | x6 | x6 | x6 | %113
 x6 | x6 | x6 | x6 | x6 | x6 | x6 ::[K:Eb] x6 | x6 | x6 | x6 | x6 | x6 | x6 | (B4 A2) | x6 | x6 | %130
 x6 | x6 | x6 | x6 | x6 | x6 :: x6 | x6 | x6 | x6 | x6 | x2!8va(! x4 | x6 | x6!8va)! | x6 | x6 | %146
 x6 | x6 | x6 | x2!8va(! x4!8va)! | x6 | x6 :| x6 | x6 | x6 | x6 | x6 | x6 | x6 | (B4 A2) | x6 | %161
 x6 | x6 | x6 | x6 | x6 | x6 | x6 |:[K:Ab] x6 | x6 | x6 | x6 | x6 | x6 | x6 | x6 | x6 | x6 | x6 | %179
 x6 | x6 | x6 | x6 | x6 | x6 | x6 | x6 | x6 | x6 | x6 | x6 | x6 | x6 | x6 | x6 | x6 | x6 | x6 | %198
 x6 | x6 :: x6 | x6 | x6 | x6 | x6 | x6 | x6 | x6 | x6 | x6 | x6 | x6 | x6 | x6 | x6 | x6 :| x6 | %217
 x6 | x6 | x6 | x6 | x6 | x6 | x6 | x6 | x6 | x6 | x6 | x6 | x6 | x6 | x6 | x6 | x6 | x6 | x6 | %236
 x6 | x6 | x6 | x6 | x6 | x6 | x6 | x6 | x6 | x6 | x6 | x6 |:[K:Eb] x6 | x6 | x6 | x6 | x6 | x6 | %254
 x6 | x6 | x6 | x6 | x6 |1 x6 | x6 | x6 | x6 | x6 :|2 x6 | x6 | x6 | x6 | x6 || x6 | x6 | x6 | x6 | %273
 x6 | x6 | x6 | x6 | x6 | x6 | x6 | x6 | x6 | x6 | x6 | x6 ||[K:Bb] x6 | x6 | x6 | x6 | x6 | x6 | %291
 x6 | x6 | x6 | x6 | x6 | x6 | x6 | x6 | x6 | x6 | x6 | x6 | x6 | x6 | x6 | x6 | x6 | x6 | x6 | %310
 x6 | x6 | x6 | x6 | x6 | x6 | x6 | x6 | x6 | x6 | x6 | x6 | x6 | x6 | x6 | x6 | x6 | x6 | x6 | %329
 x6 | x6 | x6 | x6 | x6 | x6 | x6 | x6 | x6 | x6 | x6 | x6 |] %341

